svgs/light/message-question.svg

<svg xmlns="http://www.w3.org/2000/svg" viewBox="0 0 512 512"><!-- Font Awesome Pro 6.0.0-alpha2 by @fontawesome - https://fontawesome.com License - https://fontawesome.com/license (Commercial License) --><path d="M256 280C244.955 280 236 288.953 236 300C236 311.045 244.955 320 256 320S276 311.045 276 300C276 288.953 267.045 280 256 280ZM448 0H64C28.75 0 0 28.75 0 64V352.002C0 387.252 28.75 416.002 64 416.002H160V500.002C160 509.84 171.025 515.479 179.125 509.627L304 416.002H448C483.25 416.002 512 387.252 512 352.002V64C512 28.75 483.25 0 448 0ZM480 352.002C480 369.602 465.6 384.002 448 384.002H303.924C296.996 384.002 290.254 386.25 284.713 390.408L192 460.002V400.002C192 391.164 184.836 384.002 176 384.002H64C46.4 384.002 32 369.602 32 352.002V64C32 46.4 46.4 32 64 32H448C465.6 32 480 46.4 480 64V352.002ZM278.125 96H229.656C200.062 96 176 120.062 176 149.641C176 158.484 183.156 165.641 192 165.641S208 158.484 208 149.641C208 137.703 217.719 128 229.656 128H278.125C292.406 128 304 139.609 304 153.875C304 163.75 298.531 172.625 289.469 177.141L248.625 198.344C243.312 201.094 240 206.578 240 212.547V240C240 248.844 247.156 256 256 256S272 248.844 272 240V222.266L304 205.656C323.75 195.781 336 175.938 336 153.875C336 121.969 310.031 96 278.125 96Z"/></svg>

<svg xmlns="http://www.w3.org/2000/svg" viewBox="0 0 512 512"><!--! Font Awesome Pro 6.3.0 by @fontawesome - https://fontawesome.com License - https://fontawesome.com/license (Commercial License) Copyright 2023 Fonticons, Inc. --><path d="M256 280c-11.04 0-20 8.953-20 20C236 311 244.1 320 256 320s20-8.955 20-20C276 288.1 267 280 256 280zM448 0H64C28.75 0 0 28.75 0 63.1v287.1C0 387.2 28.75 415.1 64 415.1h96v83.1c0 9.838 11.03 15.5 19.12 9.649L304 415.1H448c35.25 0 64-28.75 64-63.1V63.1C512 28.75 483.3 0 448 0zM480 352c0 17.6-14.4 32-32 32h-144.1c-6.928 0-13.67 2.248-19.21 6.406L192 460v-60c0-8.838-7.164-16-16-16H64c-17.6 0-32-14.4-32-32V64c0-17.6 14.4-32 32-32h384c17.6 0 32 14.4 32 32V352zM278.1 96H229.7C200.1 96 176 120.1 176 149.6c0 8.844 7.156 16 16 16s16-7.156 16-16C208 137.7 217.7 128 229.7 128h48.47C292.4 128 304 139.6 304 153.9c0 9.875-5.469 18.75-14.53 23.27L248.6 198.3C243.3 201.1 240 206.6 240 212.5V240C240 248.8 247.2 256 256 256s16-7.156 16-16V222.3l32-16.61c19.75-9.875 32-29.76 32-51.82C336 121.9 310 96 278.1 96z"/></svg>
